app/public/assets/passportLogoWhite.svg

<?xml version="1.0" encoding="UTF-8" standalone="no"?>
<svg
   width="31.101494"
   height="32.0005"
   viewBox="0 0 31.101494 32.0005"
   fill="none"
   version="1.1"
   id="svg32"
   sodipodi:docname="passportLogoWhite.svg"
   inkscape:version="1.1.2 (0a00cf5339, 2022-02-04)"
   xmlns:inkscape="http://www.inkscape.org/namespaces/inkscape"
   xmlns:sodipodi="http://sodipodi.sourceforge.net/DTD/sodipodi-0.dtd"
   xmlns="http://www.w3.org/2000/svg"
   xmlns:svg="http://www.w3.org/2000/svg">
  <defs
     id="defs36" />
  <sodipodi:namedview
     id="namedview34"
     pagecolor="#ffffff"
     bordercolor="#666666"
     borderopacity="1.0"
     inkscape:pageshadow="2"
     inkscape:pageopacity="0.0"
     inkscape:pagecheckerboard="0"
     showgrid="false"
     fit-margin-top="0"
     fit-margin-left="0"
     fit-margin-right="0"
     fit-margin-bottom="0"
     inkscape:zoom="10.535433"
     inkscape:cx="63.452541"
     inkscape:cy="15.993647"
     inkscape:window-width="2998"
     inkscape:window-height="1664"
     inkscape:window-x="74"
     inkscape:window-y="27"
     inkscape:window-maximized="1"
     inkscape:current-layer="svg32" />
  <path
     d="m 8.4832599,22.3883 c -1.21424,-2.1029 -1.20746,-4.5721 -0.2069,-6.5935 l -4.79591,-2.7677 c -0.11871,-0.0678 -0.22725,-0.1458 -0.34257,-0.2205 -0.06105,0.3731 -0.10175,0.7496 -0.10175,1.1397 v 11.074 c 0,3.8564 3.12379,6.9802 6.9801701,6.9802 3.7174,0 6.7496,-2.9102 6.9599,-6.5766 -3.1408,1.1837 -6.7666,-0.0339 -8.4997301,-3.039 z"
     fill="#6f3ff5"
     id="path2" />
  <path
     d="m 10.0243,6.9663804 c 2.4284,0 4.5618,1.24137 5.8134,3.1204196 l 4.7959,-2.7676796 c 0.1187,-0.06783 0.2408,-0.1255 0.3629,-0.18655 -0.2917,-0.23742 -0.6003,-0.46127 -0.9361,-0.658 L 10.4686,0.93587935 C 7.1311099,-0.99062465 2.8609199,0.15238935 0.9344179,3.4898504 -0.9242511,6.7086104 0.0797013,10.7889 3.1492199,12.8035 3.6952899,9.4932204 6.5612999,6.9629904 10.0277,6.9629904 Z"
     fill="#ffcc00"
     id="path4" />
  <path
     d="m 8.2805899,15.794 c 0.59016,-1.1905 1.52289,-2.2284 2.7609101,-2.9406 l 4.7959,-2.7711 C 14.5858,8.2032904 12.449,6.9619104 10.0239,6.9619104 c -3.4663101,0 -6.3357101,2.53024 -6.8783901,5.8405896 0.11193,0.0746 0.22385,0.1526 0.34256,0.2204 l 4.79591,2.7677 z"
     fill="#8c65f7"
     id="path6" />
  <path
     d="m 30.1675,9.8688204 c -1.8587,-3.21875 -5.8948,-4.3889 -9.1746,-2.74052 2.5947,2.12661 3.351,5.8778996 1.6178,8.8795996 -1.2142,2.1028 -3.3544,3.3306 -5.6099,3.4765 v 5.5353 c 0,0.1357 -0.0135,0.2713 -0.0203,0.407 0.3527,-0.1323 0.7021,-0.2883 1.0378,-0.4816 l 9.5919,-5.5387 c 3.3374,-1.9265 4.4838,-6.1967 2.5539,-9.5341796 z"
     fill="#02e2ac"
     id="path8" />
  <path
     d="M 17.004,19.4851 C 15.6778,19.5699 14.3143,19.2782 13.0763,18.566 L 8.2804199,15.7949 c -1.00395,2.0215 -1.00734,4.4941 0.2069,6.5935 1.7331801,3.0017 5.3589801,4.2228 8.4996801,3.039 0.0068,-0.1356 0.0203,-0.2679 0.0203,-0.407 v -5.5353 z"
     fill="#5bf1cd"
     id="path10" />
  <path
     d="m 15.8369,10.0826 c 0.736,1.1057 1.1668,2.4319 1.1668,3.8598 v 5.5387 c 2.2521,-0.1425 4.3957,-1.3737 5.6099,-3.4765 1.7332,-3.0017 0.9768,-6.7495896 -1.6179,-8.8795996 -0.1221,0.06105 -0.2442,0.11531 -0.3629,0.18654 L 15.8369,10.0792 Z"
     fill="#ffdb4c"
     id="path12" />
  <path
     d="m 15.8371,10.084 -4.796,2.771 c -1.2379401,0.7157 -2.1706701,1.7502 -2.7608301,2.9407 l 4.7959301,2.771 c 1.238,0.7157 2.6014,1.004 3.9276,0.9192 v -5.5387 c 0,-1.428 -0.4307,-2.7541 -1.1667,-3.8598 z"
     fill="#ffffff"
     id="path14" />
</svg>

<svg width="127" height="32" viewBox="0 0 127 32" fill="none" xmlns="http://www.w3.org/2000/svg">
<path d="M8.48326 22.3883C7.26902 20.2854 7.2758 17.8162 8.27636 15.7948L3.48045 13.0271C3.36174 12.9593 3.2532 12.8813 3.13788 12.8066C3.07683 13.1797 3.03613 13.5562 3.03613 13.9463V25.0203C3.03613 28.8767 6.15992 32.0005 10.0163 32.0005C13.7337 32.0005 16.7659 29.0903 16.9762 25.4239C13.8354 26.6076 10.2096 25.39 8.47647 22.3849L8.48326 22.3883Z" fill="#6F3FF5"/>
<path d="M10.0243 6.96638C12.4527 6.96638 14.5861 8.20775 15.8377 10.0868L20.6336 7.31912C20.7523 7.25129 20.8744 7.19362 20.9965 7.13257C20.7048 6.89515 20.3962 6.6713 20.0604 6.47457L10.4686 0.935879C7.13111 -0.990625 2.86092 0.152389 0.934418 3.48985C-0.924251 6.70861 0.0797014 10.7889 3.14922 12.8035C3.69529 9.49322 6.5613 6.96299 10.0277 6.96299L10.0243 6.96638Z" fill="#FFCC00"/>
<path d="M8.28059 15.794C8.87075 14.6035 9.80348 13.5656 11.0415 12.8534L15.8374 10.0823C14.5858 8.20329 12.449 6.96191 10.0239 6.96191C6.55759 6.96191 3.68819 9.49215 3.14551 12.8025C3.25744 12.8771 3.36936 12.9551 3.48807 13.0229L8.28398 15.7906L8.28059 15.794Z" fill="#8C65F7"/>
<path d="M30.1675 9.86882C28.3088 6.65007 24.2727 5.47992 20.9929 7.1283C23.5876 9.25491 24.3439 13.0062 22.6107 16.0079C21.3965 18.1107 19.2563 19.3385 17.0008 19.4844V25.0197C17.0008 25.1554 16.9873 25.291 16.9805 25.4267C17.3332 25.2944 17.6826 25.1384 18.0183 24.9451L27.6102 19.4064C30.9476 17.4799 32.094 13.2097 30.1641 9.87222L30.1675 9.86882Z" fill="#02E2AC"/>
<path d="M17.004 19.4851C15.6778 19.5699 14.3143 19.2782 13.0763 18.566L8.28042 15.7949C7.27647 17.8164 7.27308 20.289 8.48732 22.3884C10.2205 25.3901 13.8463 26.6112 16.987 25.4274C16.9938 25.2918 17.0073 25.1595 17.0073 25.0204V19.4851H17.004Z" fill="#5BF1CD"/>
<path d="M15.8369 10.0826C16.5729 11.1883 17.0037 12.5145 17.0037 13.9424V19.4811C19.2558 19.3386 21.3994 18.1074 22.6136 16.0046C24.3468 13.0029 23.5904 9.25501 20.9957 7.125C20.8736 7.18605 20.7515 7.24031 20.6328 7.31154L15.8369 10.0792V10.0826Z" fill="#FFDB4C"/>
<path d="M15.8371 10.084L11.0411 12.855C9.80316 13.5707 8.87043 14.6052 8.28027 15.7957L13.0762 18.5667C14.3142 19.2824 15.6776 19.5707 17.0038 19.4859V13.9472C17.0038 12.5192 16.5731 11.1931 15.8371 10.0874V10.084Z" fill="white"/>
<path d="M41.9214 21.567H39.0015V10.3092H43.643C44.3068 10.3092 44.8526 10.3824 45.2802 10.5287C45.7077 10.6637 46.1016 10.9056 46.4616 11.2544C47.193 11.9521 47.5587 12.8804 47.5587 14.0393C47.5587 14.6019 47.4799 15.1195 47.3224 15.5921C47.1649 16.0535 46.9398 16.4473 46.6473 16.7736C46.0284 17.4712 45.0607 17.82 43.7442 17.82H41.9214V21.567ZM42.8835 15.474C43.4461 15.474 43.8568 15.3615 44.1156 15.1364C44.3744 14.9114 44.5038 14.5569 44.5038 14.0731C44.5038 13.1279 43.9693 12.6553 42.9003 12.6553H41.9214V15.474H42.8835Z" fill="white"/>
<path d="M52.1576 19.6091L51.3812 21.567H48.2925L52.6133 10.3092H55.8033L60.0397 21.567H56.9173L56.1915 19.6091H52.1576ZM54.1999 13.7862L52.9678 17.3812H55.3982L54.1999 13.7862Z" fill="white"/>
<path d="M68.426 13.2292C67.7846 12.7228 67.1432 12.4697 66.5019 12.4697C66.1418 12.4697 65.8436 12.5653 65.6073 12.7566C65.371 12.9366 65.2529 13.1673 65.2529 13.4486C65.2529 13.6736 65.3429 13.8593 65.5229 14.0056C65.6017 14.0731 65.6748 14.1293 65.7423 14.1744C65.8099 14.2194 65.8999 14.27 66.0124 14.3263C66.1362 14.3713 66.2937 14.4219 66.485 14.4782C66.6875 14.5344 66.9519 14.6132 67.2783 14.7145C68.2684 15.007 68.9773 15.3952 69.4049 15.8791C69.8325 16.3629 70.0463 17.0268 70.0463 17.8707C70.0463 19.1534 69.6637 20.1267 68.8986 20.7906C68.4935 21.1394 68.0096 21.4039 67.447 21.5839C66.8957 21.7639 66.2937 21.8539 65.6411 21.8539C64.9659 21.8539 64.2964 21.747 63.6326 21.5333C62.9799 21.3195 62.3498 21.0044 61.7422 20.5881L62.9912 18.2251C63.4525 18.6189 63.8914 18.9115 64.3077 19.1028C64.724 19.2828 65.146 19.3728 65.5736 19.3728C66.0011 19.3728 66.3443 19.2716 66.6031 19.069C66.8619 18.8665 66.9913 18.6021 66.9913 18.2758C66.9913 17.9719 66.8675 17.73 66.62 17.55C66.3837 17.37 65.9224 17.1787 65.236 16.9761C64.6171 16.7848 64.1558 16.6273 63.852 16.5035C63.5482 16.3798 63.295 16.2335 63.0925 16.0647C62.4961 15.5696 62.1979 14.827 62.1979 13.8368C62.1979 13.2742 62.2879 12.7622 62.468 12.3009C62.6593 11.8283 62.9237 11.4288 63.2612 11.1025C63.5988 10.765 63.9983 10.5062 64.4596 10.3261C64.9322 10.1348 65.4554 10.0392 66.0293 10.0392C66.6256 10.0392 67.222 10.118 67.8184 10.2755C68.426 10.433 69.0167 10.6581 69.5906 10.9506L68.426 13.2292Z" fill="white"/>
<path d="M78.8298 13.2292C78.1884 12.7228 77.5471 12.4697 76.9057 12.4697C76.5456 12.4697 76.2474 12.5653 76.0111 12.7566C75.7748 12.9366 75.6567 13.1673 75.6567 13.4486C75.6567 13.6736 75.7467 13.8593 75.9267 14.0056C76.0055 14.0731 76.0787 14.1293 76.1462 14.1744C76.2137 14.2194 76.3037 14.27 76.4162 14.3263C76.54 14.3713 76.6975 14.4219 76.8888 14.4782C77.0913 14.5344 77.3558 14.6132 77.6821 14.7145C78.6723 15.007 79.3812 15.3952 79.8087 15.8791C80.2363 16.3629 80.4501 17.0268 80.4501 17.8707C80.4501 19.1534 80.0675 20.1267 79.3024 20.7906C78.8973 21.1394 78.4135 21.4039 77.8509 21.5839C77.2995 21.7639 76.6975 21.8539 76.0449 21.8539C75.3698 21.8539 74.7003 21.747 74.0364 21.5333C73.3838 21.3195 72.7536 21.0044 72.146 20.5881L73.395 18.2251C73.8564 18.6189 74.2952 18.9115 74.7115 19.1028C75.1278 19.2828 75.5498 19.3728 75.9774 19.3728C76.405 19.3728 76.7482 19.2716 77.0069 19.069C77.2657 18.8665 77.3951 18.6021 77.3951 18.2758C77.3951 17.9719 77.2714 17.73 77.0238 17.55C76.7875 17.37 76.3262 17.1787 75.6398 16.9761C75.021 16.7848 74.5596 16.6273 74.2558 16.5035C73.952 16.3798 73.6988 16.2335 73.4963 16.0647C72.8999 15.5696 72.6017 14.827 72.6017 13.8368C72.6017 13.2742 72.6918 12.7622 72.8718 12.3009C73.0631 11.8283 73.3275 11.4288 73.6651 11.1025C74.0026 10.765 74.4021 10.5062 74.8634 10.3261C75.336 10.1348 75.8592 10.0392 76.4331 10.0392C77.0295 10.0392 77.6258 10.118 78.2222 10.2755C78.8298 10.433 79.4205 10.6581 79.9944 10.9506L78.8298 13.2292Z" fill="white"/>
<path d="M86.0585 21.567H83.1386V10.3092H87.7801C88.444 10.3092 88.9897 10.3824 89.4173 10.5287C89.8449 10.6637 90.2387 10.9056 90.5988 11.2544C91.3302 11.9521 91.6959 12.8804 91.6959 14.0393C91.6959 14.6019 91.6171 15.1195 91.4596 15.5921C91.302 16.0535 91.077 16.4473 90.7844 16.7736C90.1656 17.4712 89.1979 17.82 87.8814 17.82H86.0585V21.567ZM87.0206 15.474C87.5832 15.474 87.9939 15.3615 88.2527 15.1364C88.5115 14.9114 88.6409 14.5569 88.6409 14.0731C88.6409 13.1279 88.1064 12.6553 87.0375 12.6553H86.0585V15.474H87.0206Z" fill="white"/>
<path d="M99.8905 9.97168C101.77 9.97168 103.306 10.6018 104.498 11.862C105.027 12.4134 105.427 13.0435 105.697 13.7524C105.978 14.45 106.119 15.187 106.119 15.9634C106.119 16.8636 105.933 17.7132 105.562 18.5121C105.202 19.2997 104.684 19.9805 104.009 20.5543C102.884 21.4995 101.494 21.9721 99.8399 21.9721C98.9509 21.9721 98.1295 21.8202 97.3756 21.5164C96.6218 21.2013 95.9691 20.7737 95.4178 20.2336C94.8664 19.6935 94.4332 19.0522 94.1182 18.3095C93.8143 17.5556 93.6624 16.7398 93.6624 15.8622C93.6624 15.0183 93.8425 14.2081 94.2025 13.4317C94.5739 12.6441 95.0971 11.9633 95.7722 11.3894C96.3123 10.9281 96.9368 10.5793 97.6457 10.343C98.3546 10.0955 99.1028 9.97168 99.8905 9.97168ZM99.8905 12.8072C99.4517 12.8072 99.041 12.8916 98.6584 13.0604C98.2758 13.2179 97.9383 13.443 97.6457 13.7355C97.3644 14.0168 97.1394 14.3488 96.9706 14.7313C96.8018 15.1027 96.7174 15.5021 96.7174 15.9297C96.7174 16.3798 96.7962 16.8017 96.9537 17.1956C97.1225 17.5781 97.3475 17.9157 97.6288 18.2082C97.9214 18.4895 98.2589 18.7146 98.6415 18.8834C99.0353 19.0522 99.4517 19.1365 99.8905 19.1365C100.329 19.1365 100.74 19.0522 101.123 18.8834C101.516 18.7146 101.854 18.4895 102.135 18.2082C102.428 17.9157 102.653 17.5781 102.81 17.1956C102.979 16.813 103.064 16.4023 103.064 15.9634C103.064 15.5246 102.979 15.1139 102.81 14.7313C102.653 14.3488 102.428 14.0168 102.135 13.7355C101.854 13.443 101.516 13.2179 101.123 13.0604C100.74 12.8916 100.329 12.8072 99.8905 12.8072Z" fill="white"/>
<path d="M118.176 21.567H114.53L111.745 17.2462V21.567H108.825V10.3092H113.365C114.007 10.3092 114.547 10.388 114.986 10.5455C115.425 10.7031 115.807 10.9562 116.133 11.3051C116.437 11.6314 116.673 12.0083 116.842 12.4359C117.011 12.8635 117.095 13.3136 117.095 13.7862C117.095 14.2925 117.005 14.7651 116.825 15.2039C116.645 15.6428 116.392 16.0028 116.066 16.2841C115.875 16.4529 115.672 16.5879 115.458 16.6892C115.244 16.7792 114.969 16.8692 114.631 16.9593L118.176 21.567ZM112.285 15.3558C112.848 15.3558 113.264 15.2546 113.534 15.052C113.692 14.9395 113.821 14.782 113.922 14.5794C114.035 14.3656 114.091 14.1575 114.091 13.9549C114.091 13.7524 114.035 13.5499 113.922 13.3473C113.821 13.1448 113.692 12.9816 113.534 12.8579C113.242 12.6553 112.825 12.554 112.285 12.554H111.745V15.3558H112.285Z" fill="white"/>
<path d="M124.487 21.567H121.567V12.7903H119.188V10.3092H126.918V12.7903H124.487V21.567Z" fill="white"/>
</svg>
